src/ui/icons/weather/83.svg

<?xml version="1.0" encoding="UTF-8"?>
<svg width="40px" height="40px" viewBox="0 0 40 40" version="1.1" xmlns="http://www.w3.org/2000/svg" xmlns:xlink="http://www.w3.org/1999/xlink">
    <title>49</title>
    <g id="Page-1" stroke="none" stroke-width="1" fill="none" fill-rule="evenodd">
        <g id="icons-day" transform="translate(-2635.000000, -6.000000)" fill="#FFFFFF" fill-rule="nonzero">
            <g id="icons" transform="translate(25.000000, 6.000000)">
                <g id="49" transform="translate(2611.499429, 7.499429)">
                    <g id="Group" transform="translate(-0.000000, 0.000000)">
                        <path d="M14.4815811,-8.8817842e-16 C17.3204569,-8.8817842e-16 19.8676956,1.53329828 21.2304452,3.90135481 C18.8938847,4.7771638 17.2170971,6.74568664 16.9935238,9.39641905 C14.7871646,9.39641905 12.6951619,11.1957333 12.1953524,12.9950476 L12.1953524,12.9950476 L12.2096709,12.9984301 C12.2002776,13.0458284 12.1953524,13.0948342 12.1953524,13.1449905 C12.1953524,13.5590462 12.5310109,13.8947048 12.9450667,13.8947048 C13.3252943,13.8947048 13.6394115,13.611652 13.6880671,13.2449399 C14.1169893,12.0377431 15.6292214,10.8958476 16.9935238,10.8958476 L16.9935238,10.8958476 L18.3717986,10.8958476 L18.4876544,9.52237105 C18.7190662,6.77801691 21.0035956,4.89813333 24.090819,4.89813333 C26.4981016,4.89813333 28.6086973,6.41275611 29.3985963,8.63710842 L29.3985963,8.63710842 L29.8145378,9.80846202 L31.0427697,9.61683505 C31.2579877,9.58324785 31.4771042,9.56625432 31.6990196,9.56625432 C34.0130377,9.56625432 35.8863238,11.4316434 35.8863238,13.7297676 C35.8863238,16.0276919 34.0130377,17.893181 31.6990196,17.893181 L31.6990196,17.893181 L25.7909684,17.893202 C25.7915411,17.5221558 25.6979686,17.1460172 25.5006889,16.8015872 C25.1993596,16.2754971 24.7142672,15.9235045 24.1750351,15.7778207 L24.1750351,15.7778207 L23.9924461,15.7367528 C23.6852902,15.6813108 23.3653992,15.6912982 23.0548159,15.7728204 L23.0548159,15.7728204 L23.0355714,15.7785714 L23.0191259,15.7027929 C22.9179457,15.3331315 22.7226195,15.0028625 22.4612837,14.7394641 C22.0650212,14.3400742 21.5172974,14.0940571 20.9128302,14.0940571 C20.3084228,14.0940571 19.760664,14.3400789 19.3643759,14.739553 L19.3643759,14.739553 L19.2393619,14.8766915 C19.0406047,15.1141181 18.8909303,15.3947978 18.8066247,15.7028301 L18.8066247,15.7028301 L18.7865714,15.7905714 L18.7292601,15.7728154 C18.3565691,15.674988 17.9704947,15.6801773 17.6090908,15.7778174 C17.0700232,15.9234568 16.5849856,16.275306 16.2835575,16.8012901 C16.0861211,17.1460982 15.9925397,17.5223377 15.9931169,17.8933638 L15.9931169,17.8933638 L15.8175714,17.8925714 L15.0489921,15.9451691 L14.9590438,15.7328494 C14.773898,15.3250008 14.5590128,15.0170361 14.3460004,14.7934652 C13.8503938,14.2732925 13.3035196,14.0940696 12.7944486,14.0940696 C12.2853059,14.0940696 11.7384161,14.2733838 11.2428795,14.7934534 C10.994287,15.0543531 10.743202,15.4301232 10.5398542,15.9451738 L10.5398542,15.9451738 L9.77057143,17.8925714 L4.69850941,17.893181 C2.10319848,17.893181 -1.43685064e-12,15.7901824 -1.43685064e-12,13.1949714 C-1.43685064e-12,10.5999604 2.10309851,8.4967619 4.69850941,8.4967619 L4.69850941,8.4967619 L6.60968107,8.4967619 L6.72513707,7.12278552 C7.06200869,3.11111436 10.4288256,-8.8817842e-16 14.4815811,-8.8817842e-16 Z" id="Combined-Shape"></path>
                    </g>
                    <g id="Group" transform="translate(5.597867, 15.594057)">
                        <path d="M21.3220742,9.84474819 L20.5654626,10.2814818 C20.3853042,10.3866038 20.1626644,10.3872721 19.9818782,10.2832335 C19.801092,10.179195 19.6898086,9.98636102 19.6901816,9.77777644 C19.6905546,9.56919186 19.8025271,9.37675719 19.9836843,9.27336594 L20.7274008,8.84402956 L19.9836843,8.41469318 C19.8006718,8.3122404 19.6869436,8.11923799 19.6859903,7.90950189 C19.6850489,7.69976579 19.797029,7.5057439 19.9791085,7.40164208 C20.161188,7.29754026 20.3851977,7.29946392 20.5654626,7.40667733 L21.3221742,7.84331093 L21.3221742,6.97954011 C21.3194254,6.76981961 21.4297352,6.57484287 21.6109143,6.4691811 C21.7920933,6.36351933 22.0161115,6.36351933 22.1972905,6.4691811 C22.3784696,6.57484287 22.4887794,6.76981961 22.4860306,6.97954011 L22.4860306,7.82901638 L23.2177518,7.40667733 C23.3979601,7.30041377 23.6213377,7.29905059 23.8028295,7.40310684 C23.9843214,7.5071631 24.0959978,7.70062565 24.0953391,7.90983023 C24.0946745,8.11903481 23.9817765,8.31178705 23.79963,8.41469318 L23.0559134,8.84402956 L23.79963,9.27336594 C23.9807872,9.37675719 24.0927597,9.56919186 24.0931327,9.77777644 C24.0935057,9.98636102 23.9822223,10.179195 23.8014361,10.2832335 C23.6206499,10.3872721 23.3980101,10.3866038 23.2178517,10.2814818 L22.4860306,9.85904274 L22.4860306,10.713717 C22.4860306,11.0351347 22.2254701,11.2956952 21.9040524,11.2956952 C21.5826347,11.2956952 21.3220742,11.0351347 21.3220742,10.713717 L21.3220742,9.84474819 L21.3220742,9.84474819 Z M14.6311241,5.05857219 L12.9213757,6.05319314 C12.5942004,6.24352061 12.1759598,6.1304637 11.9871317,5.80078933 C11.7983037,5.47111497 11.910461,5.04957562 12.2376363,4.85924815 L13.9471848,3.90601143 L12.2376363,2.89459688 C11.910461,2.70426941 11.7983037,2.28283002 11.9871317,1.9530557 C12.1760597,1.62338133 12.5942004,1.51032442 12.9213757,1.70065189 L14.6311241,2.69527284 L14.6311241,0.689337295 C14.6311241,0.3085824 14.9373074,7.10542736e-15 15.3149635,7.10542736e-15 C15.6927195,7.10542736e-15 15.9989029,0.3085824 15.9989029,0.689337295 L15.9989029,2.67108206 L17.6669672,1.70065189 C17.9941425,1.51032442 18.4123831,1.62338133 18.6012111,1.9530557 C18.7900392,2.28273006 18.6778819,2.70426941 18.3507066,2.89469684 L16.6827422,3.90601143 L18.3507066,4.85924815 C18.6778819,5.04957562 18.7900392,5.47101501 18.6012111,5.8008893 C18.4122831,6.1304637 17.9941425,6.24352061 17.6669672,6.05319314 L15.9989029,5.08276297 L15.9989029,7.00772937 C15.9989029,7.38848427 15.6927195,7.69706667 15.3149635,7.69706667 C14.9373074,7.69706667 14.6311241,7.38848427 14.6311241,7.00772937 L14.6311241,5.05847223 L14.6311241,5.05857219 Z M14.6896018,14.0950284 L13.1306959,14.9992838 C12.9874488,15.0822977 12.817012,15.1047622 12.6571474,15.0617001 C12.4972827,15.018638 12.3611895,14.9136047 12.2790205,14.7698712 C12.1067861,14.4700855 12.2090472,14.0868315 12.5073335,13.9138974 L14.0660395,13.0472277 L12.5073335,12.1278781 C12.2090472,11.954844 12.1067861,11.5715901 12.2789205,11.2719043 C12.3610729,11.1281267 12.4971769,11.0230525 12.6570672,10.9799697 C12.8169575,10.936887 12.9874277,10.9593542 13.1306959,11.0423918 L14.6896018,11.9466472 L14.6896018,10.1231421 C14.6896018,9.77707398 14.9687954,9.49648091 15.3131642,9.49648091 C15.657533,9.49648091 15.9367266,9.77707398 15.9367266,10.1231421 L15.9367266,11.9247555 L17.4576469,11.0424917 C17.6009062,10.959486 17.7713522,10.9370367 17.9312183,10.980118 C18.0910844,11.0231993 18.2271701,11.1282539 18.3093224,11.2720043 C18.4815567,11.5716901 18.3792957,11.954944 18.0810094,12.1279781 L16.560189,13.0473277 L18.0810094,13.9139974 C18.3792957,14.0869315 18.4815567,14.4701854 18.3094223,14.7699712 C18.2272531,14.9137318 18.0911417,15.0187848 17.9312529,15.0618484 C17.7713641,15.104912 17.600903,15.0824296 17.4576469,14.9993838 L15.9367266,14.11722 L15.9367266,15.8671531 C15.9367266,16.2132212 15.657533,16.4938142 15.3131642,16.4938142 C14.9687954,16.4938142 14.6896018,16.2132212 14.6896018,15.8671531 L14.6896018,14.0951284 L14.6896018,14.0950284 Z" id="Shape"></path>
                        <path d="M3.0404413,9.17710263 C3.1450718,9.39635816 3.19918033,9.63629396 3.19878315,9.87923505 C3.19878315,10.7718949 2.48275383,11.495619 1.59939048,11.495619 C0.716027124,11.495619 0,10.7718949 0,9.87923505 C0,9.6319293 0.0549790476,9.39761859 0.1532416,9.18799848 L1.04890027,6.88387657 C1.35278446,6.10247436 1.84489691,6.10187459 2.14888107,6.88387657 L3.0404413,9.17710263 L3.0404413,9.17710263 Z M9.44889905,4.4301117 C9.61222704,4.76674971 9.6968304,5.13613309 9.6963072,5.51030004 C9.6963072,6.88357669 8.57743116,7.99695238 7.19725714,7.99695238 C5.81708312,7.99695238 4.69820952,6.88357669 4.69820952,5.51030004 C4.69820952,5.12974507 4.78417676,4.76918248 4.93761829,4.44670537 L6.33718491,0.901956267 C6.81180404,-0.3001856 7.58091093,-0.301085257 8.0559299,0.901956267 L9.44889905,4.4301117 L9.44889905,4.4301117 Z M9.17870202,13.3727037 C9.32237626,13.6670336 9.39684649,13.9903192 9.39642088,14.3178435 C9.39642088,15.5195855 8.41179429,16.4937143 7.19725714,16.4937143 C5.98272,16.4937143 4.99809524,15.5195855 4.99809524,14.3178435 C4.99809524,13.9849704 5.07366644,13.6693906 5.20881493,13.3871982 L6.4403456,10.2855802 C6.8580864,9.23378103 7.53492846,9.23298133 7.95276922,10.2855802 L9.17870202,13.3727037 L9.17870202,13.3727037 Z" id="Shape"></path>
                    </g>
                </g>
            </g>
        </g>
    </g>
</svg>

<svg id="icon-icon_weather_83" width="40" height="40" viewBox="0 0 40 40">
    <g fill="none" fill-rule="evenodd">
        <g fill-rule="nonzero">
            <g>
                <g>
                    <g transform="translate(-2635 -6) translate(25 6) translate(2610 6)">
                        <path fill="#FFF" d="M15.98 1C11.408 1 7.61 4.51 7.229 9.038l-.038.458h-.992C3.05 9.496.5 12.047.5 15.194c0 3.148 2.55 5.698 5.698 5.698H25.89c3.81 0 6.898-3.088 6.898-6.897 0-3.81-3.089-6.898-6.898-6.898-.363 0-.723.028-1.077.084l-.41.064-.139-.391C23.034 3.374 19.734 1 15.981 1z"/>
                        <path fill="#333" d="M25.89 20.892v-1.5c3.257 0 5.898-2.64 5.898-5.897s-2.64-5.898-5.898-5.898c-.311 0-.62.024-.922.072l-1.23.193-.416-1.175C22.232 3.603 19.306 1.5 15.981 1.5c-4.053 0-7.42 3.112-7.756 7.123l-.116 1.374H6.198c-2.595 0-4.699 2.103-4.699 4.698 0 2.596 2.104 4.699 4.699 4.699h3.598v1.499H6.198C2.775 20.892 0 18.118 0 14.694c0-3.422 2.774-6.197 6.198-6.197h.532C7.13 3.737 11.12 0 15.981 0c4.041 0 7.48 2.582 8.755 6.187.382-.06.768-.09 1.154-.09 4.086 0 7.397 3.312 7.397 7.398 0 4.085-3.311 7.397-7.397 7.397z"/>
                        <path fill="#FFF" d="M25.572 5.598c-3.509 0-6.423 2.7-6.715 6.183l-.03.352h-.76c-2.415 0-4.372 1.962-4.372 4.382s1.957 4.382 4.371 4.382h15.108c2.922 0 5.291-2.375 5.291-5.305 0-2.93-2.369-5.304-5.291-5.304-.279 0-.555.021-.826.064l-.315.05-.106-.302c-.945-2.676-3.477-4.502-6.355-4.502z"/>
                        <path fill="#333" d="M28.206 20.892v-1.5h4.992c2.314 0 4.188-1.865 4.188-4.163s-1.874-4.163-4.188-4.163c-.221 0-.44.017-.656.05l-1.228.192-.416-1.171c-.79-2.225-2.9-3.74-5.308-3.74-3.087 0-5.372 1.88-5.603 4.625l-.116 1.373h-1.378c-1.421 0-3.003 1.24-3.353 2.5l-1.445-.4c.5-1.8 2.592-3.6 4.798-3.6.307-3.642 3.36-5.997 7.097-5.997 3.107 0 5.74 1.977 6.721 4.737.294-.046.59-.069.887-.069 3.141 0 5.687 2.536 5.687 5.663 0 3.128-2.546 5.663-5.687 5.663h-4.992zm0-1.5h4.992c2.314 0 4.188-1.865 4.188-4.163s-1.874-4.163-4.188-4.163c-.221 0-.44.017-.656.05l-1.228.192-.416-1.171c-.79-2.225-2.9-3.74-5.308-3.74-3.087 0-5.372 1.88-5.603 4.625l-.116 1.373h-1.378c-1.421 0-3.003 1.24-3.353 2.5l-1.445-.4c.5-1.8 2.592-3.6 4.798-3.6.307-3.642 3.36-5.997 7.097-5.997 3.107 0 5.74 1.977 6.721 4.737.294-.046.59-.069.887-.069 3.141 0 5.687 2.536 5.687 5.663 0 3.128-2.546 5.663-5.687 5.663h-4.992v-1.5z"/>
                        <circle cx="28.139" cy="20.142" r="1" fill="#333"/>
                        <circle cx="9.746" cy="20.142" r="1" fill="#333"/>
                        <circle cx="14.444" cy="14.644" r="1" fill="#333"/>
                    </g>
                    <g fill="#333">
                        <path d="M21.322 9.845l-.757.436c-.18.106-.402.106-.583.002-.18-.104-.292-.297-.292-.505 0-.209.113-.401.294-.505l.743-.429-.743-.43c-.183-.102-.297-.295-.298-.504-.001-.21.111-.404.293-.508.182-.104.406-.103.586.005l.757.436V6.98c-.003-.21.108-.405.289-.51.181-.106.405-.106.586 0 .181.105.292.3.289.51v.849l.732-.422c.18-.107.403-.108.585-.004.181.104.293.298.292.507 0 .209-.113.402-.295.505l-.744.429.744.43c.18.103.293.295.293.504 0 .208-.11.401-.292.505-.18.104-.403.104-.583-.002l-.732-.422v.855c0 .321-.26.582-.582.582-.321 0-.582-.26-.582-.582v-.87zm-6.69-4.786l-1.71.994c-.328.19-.746.077-.935-.252-.189-.33-.077-.751.25-.942l1.71-.953-1.71-1.011c-.327-.19-.439-.612-.25-.942.19-.33.607-.443.934-.252l1.71.994V.69c0-.38.306-.689.684-.689.378 0 .684.309.684.69V2.67l1.668-.97c.327-.19.745-.078.934.252.189.33.077.751-.25.942l-1.668 1.011 1.668.953c.327.19.439.612.25.942-.189.33-.607.443-.934.252l-1.668-.97v1.925c0 .38-.306.69-.684.69-.378 0-.684-.31-.684-.69v-1.95zm.058 9.036l-1.56.904c-.143.083-.313.106-.473.063-.16-.043-.296-.148-.378-.292-.172-.3-.07-.683.228-.856l1.559-.867-1.559-.92c-.298-.172-.4-.555-.228-.855.082-.144.218-.249.378-.292.16-.043.33-.02.474.062l1.559.905v-1.824c0-.346.279-.627.623-.627.345 0 .624.281.624.627v1.802l1.52-.883c.144-.083.314-.105.474-.062.16.043.296.148.378.292.173.3.07.683-.228.856l-1.52.92 1.52.866c.298.173.4.556.228.856-.082.144-.218.249-.378.292-.16.043-.33.02-.473-.063l-1.521-.882v1.75c0 .346-.28.627-.624.627s-.623-.28-.623-.627v-1.772zM3.04 9.177c.105.22.16.46.159.702 0 .893-.716 1.617-1.6 1.617C.716 11.496 0 10.772 0 9.879c0-.247.055-.481.153-.691l.896-2.304c.304-.782.796-.782 1.1 0l.891 2.293zM9.45 4.43c.163.337.248.706.247 1.08 0 1.374-1.119 2.487-2.499 2.487-1.38 0-2.499-1.113-2.499-2.487 0-.38.086-.74.24-1.063l1.4-3.545C6.811-.3 7.58-.301 8.055.902L9.449 4.43zm-.27 8.943c.143.294.218.617.217.945 0 1.202-.984 2.176-2.199 2.176-1.214 0-2.199-.974-2.199-2.176 0-.333.076-.649.21-.93l1.232-3.102c.418-1.052 1.095-1.053 1.513 0l1.226 3.087z" transform="translate(-2635 -6) translate(25 6) translate(2610 6) translate(7.097 17.093)"/>
                    </g>
                </g>
            </g>
        </g>
    </g>
</svg>
